X:1
T:Title
%%score [ ( 1 2 ) ( 3 4 ) ]
L:1/8
Q:1/4=240
M:4/4
K:Bb
V:1 treble nm="Midi_74"
V:2 treble 
V:3 bass nm="Midi_74"
V:4 bass 
V:1
"^Henry Lawes\n(1596-1662)" F8 | d4 c4 | B8 || F8 | G4 F4 | E4 E4 | D8 || F8 | F4 =E4 | F8 || G8 | %11
 e4 d4 | c4 c4 | B8 |] %14
V:2
 D8 | F4 E4 | D8 || B,8 | B,4 B,4 | B,4 A,4 | B,8 || D8 | C4 C4 | C8 || E8 | E4 F4 | F6 E2 | D8 |] %14
V:3
 B,8 | B,4 A,4 | B,8 || B,8 | E,4 F,4 | G,4 E,4 | F,8 || B,8 | C4 B,4 | A,8 || B,8 | A,4 B,4 | %12
 B,4 A,4 | B,8 |] %14
V:4
 B,,8 | B,4 F,4 | G,8 || D,8 | E,4 D,4 | C,4 C,4 | B,,8 || B,8 | A,4 G,4 | F,8 || E,8 | C,4 B,,4 | %12
 F,4 F,4 | B,,8 |] %14

